X: 40038
T: Thresh The Protestants
R: slip jig
M: 9/8
K: Cmajor
c2 A AcA a3|efe ecA Bcd|c2 A AcA a2 e|d2 d d2 c Bcd||
efe ecA ecA|efe ecA Bcd|efe ecA ecA|efe ecA Bcd||

